;FLAVOR:Marlin
;TIME:12452
;Filament used: 26.1056m
;Layer height: 0.32
;MINX:6.108
;MINY:43.457
;MINZ:0.32
;MAXX:234.244
;MAXY:219.434
;MAXZ:14.32
;Generated with Cura_SteamEngine 4.13.1
M140 S50
M105
M190 S50
M104 S200
M105
M109 S200
M82 ;absolute extrusion mode
; Ender 3 Custom Start G-code
G92 E0 ; Reset Extruder
G28 ; Home all axes
G1 Z2.0 F3000 ; Move Z Axis up little to prevent scratching of Heat Bed
G1 X0.1 Y20 Z0.3 F5000.0 ; Move to start position
G1 X0.1 Y200.0 Z0.3 F1500.0 E15 ; Draw the first line
G1 X0.4 Y200.0 Z0.3 F5000.0 ; Move to side a little
G1 X0.4 Y20 Z0.3 F1500.0 E30 ; Draw the second line
G92 E0 ; Reset Extruder
G1 Z2.0 F3000 ; Move Z Axis up little to prevent scratching of Heat Bed
G1 X5 Y20 Z0.3 F5000.0 ; Move over to prevent blob squish
G92 E0
G92 E0
G1 F2700 E-5
;LAYER_COUNT:29
;LAYER:0
M107
G0 F6000 X17.156 Y178.859 Z0.32
;TYPE:SKIRT
G1 F2700 E0
G1 F1200 X18.267 Y178.778 E0.1482
G1 X18.588 Y178.769 E0.19092
G1 X18.938 Y178.764 E0.23749
G1 X217.901 Y178.764 E26.70764
G1 X218.778 Y178.775 E26.82432
G1 X219.776 Y178.83 E26.9573
G1 X220.767 Y178.963 E27.09032
G1 X221.744 Y179.176 E27.22336
G1 X222.701 Y179.466 E27.35639
G1 X223.631 Y179.832 E27.48936
G1 X224.53 Y180.271 E27.62246
G1 X225.39 Y180.78 E27.75541
G1 X226.207 Y181.356 E27.88841
G1 X226.976 Y181.996 E28.02151
G1 X227.69 Y182.695 E28.15444
G1 X228.347 Y183.449 E28.2875
G1 X228.941 Y184.253 E28.42049
G1 X229.469 Y185.102 E28.5535
G1 X229.928 Y185.991 E28.68661
G1 X230.314 Y186.913 E28.81959
G1 X230.625 Y187.863 E28.95257
G1 X230.859 Y188.835 E29.08558
G1 X231.014 Y189.823 E29.21864
G1 X231.094 Y190.923 E29.36537
G1 X231.103 Y191.243 E29.40796
G1 X231.108 Y191.594 E29.45466
G1 X231.107 Y206.353 E31.4182
G1 X231.098 Y207.08 E31.51493
G1 X231.046 Y208.078 E31.64789
G1 X230.914 Y209.069 E31.78089
G1 X230.703 Y210.047 E31.914
G1 X230.415 Y211.004 E32.04696
G1 X230.051 Y211.935 E32.17995
G1 X229.614 Y212.834 E32.31294
G1 X229.106 Y213.696 E32.44605
G1 X228.532 Y214.514 E32.579
G1 X227.893 Y215.283 E32.71202
G1 X227.196 Y216 E32.84505
G1 X226.443 Y216.658 E32.97809
G1 X225.64 Y217.253 E33.11105
G1 X224.792 Y217.783 E33.2441
G1 X223.904 Y218.243 E33.37715
G1 X222.983 Y218.631 E33.51011
G1 X222.033 Y218.944 E33.64318
G1 X221.062 Y219.18 E33.77612
G1 X220.075 Y219.338 E33.9091
G1 X218.949 Y219.42 E34.0593
G1 X218.628 Y219.429 E34.10203
G1 X218.278 Y219.434 E34.1486
G1 X19.154 Y219.433 E60.64016
G1 X18.456 Y219.424 E60.73303
G1 X17.457 Y219.371 E60.86612
G1 X16.466 Y219.239 E60.99913
G1 X15.489 Y219.027 E61.13214
G1 X14.532 Y218.739 E61.2651
G1 X13.601 Y218.374 E61.39814
G1 X12.702 Y217.937 E61.53112
G1 X11.841 Y217.429 E61.66412
G1 X11.023 Y216.854 E61.79715
G1 X10.254 Y216.215 E61.93017
G1 X9.538 Y215.517 E62.0632
G1 X8.88 Y214.764 E62.19624
G1 X8.285 Y213.961 E62.3292
G1 X7.756 Y213.112 E62.46228
G1 X7.296 Y212.225 E62.59521
G1 X6.909 Y211.303 E62.72824
G1 X6.596 Y210.353 E62.86132
G1 X6.361 Y209.382 E62.99423
G1 X6.204 Y208.394 E63.12732
G1 X6.122 Y207.263 E63.27818
G1 X6.113 Y206.93 E63.3225
G1 X6.108 Y206.592 E63.36748
G1 X6.109 Y191.769 E65.33954
G1 X6.118 Y191.104 E65.42802
G1 X6.172 Y190.105 E65.56112
G1 X6.305 Y189.115 E65.69401
G1 X6.517 Y188.137 E65.82715
G1 X6.806 Y187.18 E65.96015
G1 X7.171 Y186.25 E66.09306
G1 X7.609 Y185.351 E66.2261
G1 X8.117 Y184.49 E66.3591
G1 X8.693 Y183.673 E66.4921
G1 X9.332 Y182.904 E66.62512
G1 X10.031 Y182.189 E66.75814
G1 X10.784 Y181.531 E66.89118
G1 X11.588 Y180.937 E67.02417
G1 X12.436 Y180.408 E67.15714
G1 X13.325 Y179.949 E67.29025
G1 X14.247 Y179.562 E67.42328
G1 X15.196 Y179.25 E67.55619
G1 X16.168 Y179.015 E67.68923
G1 X17.156 Y178.859 E67.8223
G0 F6000 X17.021 Y179.884
G1 F1200 X18.295 Y179.778 E67.99238
G1 X18.616 Y179.769 E68.0351
G1 X18.938 Y179.764 E68.07795
G1 X217.901 Y179.764 E94.54809
G1 X218.764 Y179.775 E94.66291
G1 X219.721 Y179.829 E94.79044
G1 X220.671 Y179.962 E94.91806
G1 X221.606 Y180.174 E95.04561
G1 X222.52 Y180.463 E95.17314
G1 X223.407 Y180.828 E95.30075
G1 X224.261 Y181.264 E95.42832
G1 X225.075 Y181.771 E95.5559
G1 X225.845 Y182.344 E95.68359
G1 X226.563 Y182.978 E95.81103
G1 X227.227 Y183.671 E95.93871
G1 X227.83 Y184.416 E96.06623
G1 X228.37 Y185.209 E96.19386
G1 X228.841 Y186.044 E96.32141
G1 X229.241 Y186.916 E96.44904
G1 X229.567 Y187.817 E96.57652
G1 X229.817 Y188.743 E96.70412
G1 X229.989 Y189.687 E96.83178
G1 X230.094 Y190.951 E97.00052
G1 X230.103 Y191.271 E97.04311
G1 X230.108 Y191.594 E97.08609
G1 X230.107 Y206.34 E99.04791
G1 X230.098 Y207.067 E99.14463
G1 X230.046 Y208.025 E99.27228
G1 X229.915 Y208.975 E99.39986
G1 X229.705 Y209.91 E99.52735
G1 X229.417 Y210.825 E99.65497
G1 X229.055 Y211.713 E99.78255
G1 X228.62 Y212.568 E99.91018
G1 X228.115 Y213.383 E100.03773
G1 X227.543 Y214.153 E100.16535
G1 X226.91 Y214.873 E100.29289
G1 X226.219 Y215.538 E100.42048
G1 X225.475 Y216.143 E100.54806
G1 X224.683 Y216.684 E100.67566
G1 X223.849 Y217.157 E100.80322
G1 X222.978 Y217.559 E100.93084
G1 X222.077 Y217.886 E101.05836
G1 X221.152 Y218.138 E101.18591
G1 X220.208 Y218.312 E101.31362
G1 X218.921 Y218.42 E101.48544
G1 X218.6 Y218.429 E101.52816
G1 X218.278 Y218.434 E101.57101
G1 X19.167 Y218.433 E128.06084
G1 X18.469 Y218.424 E128.15371
G1 X17.511 Y218.372 E128.28135
G1 X16.561 Y218.24 E128.40896
G1 X15.626 Y218.029 E128.53648
G1 X14.711 Y217.741 E128.6641
G1 X13.823 Y217.378 E128.79173
G1 X12.969 Y216.943 E128.91923
G1 X12.154 Y216.437 E129.04686
G1 X11.384 Y215.866 E129.17439
G1 X10.664 Y215.232 E129.30203
G1 X10 Y214.541 E129.42952
G1 X9.395 Y213.796 E129.5572
G1 X8.855 Y213.004 E129.68473
G1 X8.383 Y212.17 E129.81223
G1 X7.981 Y211.299 E129.93985
G1 X7.654 Y210.397 E130.0675
G1 X7.403 Y209.472 E130.19501
G1 X7.229 Y208.529 E130.32258
G1 X7.121 Y207.236 E130.4952
G1 X7.112 Y206.903 E130.53952
G1 X7.108 Y206.592 E130.5809
G1 X7.109 Y191.782 E132.55123
G1 X7.118 Y191.117 E132.63971
G1 X7.171 Y190.16 E132.76723
G1 X7.304 Y189.21 E132.89485
G1 X7.515 Y188.275 E133.02237
G1 X7.803 Y187.36 E133.14999
G1 X8.167 Y186.473 E133.27755
G1 X8.603 Y185.619 E133.40511
G1 X9.109 Y184.804 E133.53274
G1 X9.681 Y184.034 E133.66035
G1 X10.315 Y183.315 E133.78789
G1 X11.007 Y182.651 E133.91548
G1 X11.752 Y182.047 E134.04307
G1 X12.544 Y181.507 E134.1706
G1 X13.379 Y181.035 E134.29821
G1 X14.25 Y180.634 E134.42578
G1 X15.152 Y180.308 E134.55338
G1 X16.077 Y180.057 E134.68089
G1 X17.021 Y179.884 E134.80858
G0 F6000 X16.938 Y180.908
G1 F1200 X17.848 Y180.801 E134.93048
G1 X18.323 Y180.777 E134.99375
G1 X18.644 Y180.768 E135.03647
G1 X18.938 Y180.764 E135.07559
G1 X217.901 Y180.764 E161.54574
G1 X218.749 Y180.775 E161.65856
G1 X219.664 Y180.828 E161.7805
G1 X220.571 Y180.961 E161.90246
G1 X221.462 Y181.172 E162.02428
G1 X222.332 Y181.46 E162.1462
G1 X223.174 Y181.823 E162.26819
G1 X223.98 Y182.258 E162.39004
G1 X224.746 Y182.761 E162.51195
G1 X225.465 Y183.33 E162.63394
G1 X226.131 Y183.958 E162.75572
G1 X226.74 Y184.643 E162.87766
G1 X227.287 Y185.378 E162.99956
G1 X227.768 Y186.158 E163.12147
G1 X228.179 Y186.977 E163.24338
G1 X228.518 Y187.828 E163.36525
G1 X228.78 Y188.706 E163.48715
G1 X228.965 Y189.604 E163.60913
G1 X229.071 Y190.514 E163.73102
G1 X229.095 Y190.979 E163.79296
G1 X229.104 Y191.299 E163.83555
G1 X229.108 Y191.594 E163.8748
G1 X229.107 Y206.328 E165.83502
G1 X229.098 Y207.055 E165.93175
G1 X229.047 Y207.97 E166.05367
G1 X228.916 Y208.877 E166.17559
G1 X228.707 Y209.769 E166.29748
G1 X228.42 Y210.639 E166.41936
G1 X228.059 Y211.481 E166.54124
G1 X227.626 Y212.289 E166.6632
G1 X227.124 Y213.055 E166.78504
G1 X226.557 Y213.775 E166.90697
G1 X225.929 Y214.443 E167.02895
G1 X225.246 Y215.053 E167.15078
G1 X224.512 Y215.602 E167.27272
G1 X223.733 Y216.084 E167.3946
G1 X222.915 Y216.497 E167.51651
G1 X222.064 Y216.837 E167.63843
G1 X221.187 Y217.101 E167.76028
G1 X220.29 Y217.288 E167.88218
G1 X219.38 Y217.396 E168.0041
G1 X218.893 Y217.421 E168.06897
G1 X218.572 Y217.43 E168.11169
G1 X218.278 Y217.434 E168.15081
G1 X19.18 Y217.433 E194.63892
G1 X18.482 Y217.424 E194.73179
G1 X17.567 Y217.372 E194.85372
G1 X16.66 Y217.241 E194.97564
G1 X15.768 Y217.031 E195.09755
G1 X14.898 Y216.744 E195.21943
G1 X14.056 Y216.383 E195.34131
G1 X13.249 Y215.949 E195.46322
G1 X12.482 Y215.447 E195.58517
G1 X11.763 Y214.879 E195.70708
G1 X11.095 Y214.251 E195.82906
G1 X10.485 Y213.568 E195.95089
G1 X9.937 Y212.834 E196.07275
G1 X9.455 Y212.054 E196.19474
G1 X9.043 Y211.236 E196.31659
G1 X8.703 Y210.385 E196.43851
G1 X8.44 Y209.507 E196.56045
G1 X8.253 Y208.61 E196.68235
G1 X8.146 Y207.7 E196.80425
G1 X8.121 Y207.209 E196.86966
G1 X8.112 Y206.876 E196.91398
G1 X8.108 Y206.592 E196.95176
G1 X8.109 Y191.796 E198.92023
G1 X8.118 Y191.131 E199.00871
G1 X8.17 Y190.216 E199.13064
G1 X8.302 Y189.309 E199.25258
G1 X8.513 Y188.418 E199.3744
G1 X8.8 Y187.548 E199.49628
G1 X9.162 Y186.706 E199.61821
G1 X9.597 Y185.899 E199.74018
G1 X10.099 Y185.133 E199.86202
G1 X10.667 Y184.414 E199.98393
G1 X11.295 Y183.747 E200.10581
G1 X11.979 Y183.137 E200.22774
G1 X12.714 Y182.589 E200.34971
G1 X13.494 Y182.108 E200.47163
G1 X14.312 Y181.696 E200.59348
G1 X15.163 Y181.357 E200.71535
G1 X16.041 Y181.094 E200.83729
G1 X16.938 Y180.908 E200.95916
G1 F2700 E195.95916
;MESH:untitledPinaTinnyStlAndPringle_v5_002.stl
G0 F6000 X201.229 Y199.102
G0 X198.564 Y199.205
G0 X199.711 Y201.453
;TYPE:WALL-INNER
G1 F2700 E200.95916
G1 F1200 X200.31 Y202.235 E201.09021
G1 X200.468 Y202.393 E201.11994
G1 X201.216 Y202.966 E201.2453
G1 X201.405 Y203.084 E201.27494
G1 X202.439 Y203.509 E201.42367
G1 X203.615 Y203.661 E201.58143
G1 X204.66 Y203.525 E201.72163
G1 X204.871 Y203.472 E201.75057
G1 X205.891 Y203.049 E201.89748
G1 X206.837 Y202.324 E202.05605
G1 X207.56 Y201.379 E202.21435
G1 X208.015 Y200.28 E202.37259
G1 X208.171 Y199.1 E202.53095
G1 X208.016 Y197.918 E202.68955
G1 X207.561 Y196.82 E202.84767
G1 X206.838 Y195.876 E203.00586
G1 X205.892 Y195.148 E203.16467
G1 X204.872 Y194.727 E203.31148
G1 X204.661 Y194.674 E203.34042
G1 X203.714 Y194.55 E203.46749
G1 X203.495 Y194.55 E203.49662
G1 X202.44 Y194.688 E203.63818
G1 X201.409 Y195.111 E203.78644
G1 X201.218 Y195.229 E203.81631
G1 X200.468 Y195.805 E203.94212
G1 X200.311 Y195.962 E203.97166
G1 X199.712 Y196.744 E204.10271
G1 X199.608 Y196.935 E204.13164
G1 X199.242 Y197.817 E204.25869
G1 X199.185 Y198.032 E204.28828
G1 X199.063 Y198.962 E204.41307
G1 X199.056 Y199.18 E204.44208
G1 X199.184 Y200.164 E204.5741
G1 X199.24 Y200.379 E204.60366
G1 X199.607 Y201.261 E204.73075
G1 X199.711 Y201.453 E204.7598
G0 F6000 X200.076 Y201.269
G0 X200.552 Y200.906
;TYPE:WALL-OUTER
G1 F1200 X201.064 Y201.575 E204.87188
G1 X201.128 Y201.639 E204.88392
G1 X201.786 Y202.143 E204.99419
G1 X201.863 Y202.191 E205.00626
G1 X202.698 Y202.534 E205.12636
G1 X203.615 Y202.653 E205.24938
G1 X204.473 Y202.541 E205.3645
G1 X204.557 Y202.52 E205.37602
G1 X205.387 Y202.176 E205.49555
G1 X206.123 Y201.611 E205.61899
G1 X206.686 Y200.875 E205.74227
G1 X207.041 Y200.019 E205.86556
G1 X207.162 Y199.099 E205.98901
G1 X207.042 Y198.179 E206.11245
G1 X206.687 Y197.324 E206.23561
G1 X206.124 Y196.588 E206.35889
G1 X205.388 Y196.022 E206.48242
G1 X204.558 Y195.679 E206.6019
G1 X204.474 Y195.658 E206.61342
G1 X203.649 Y195.55 E206.72411
G1 X203.56 Y195.55 E206.73595
G1 X202.699 Y195.663 E206.85148
G1 X201.864 Y196.005 E206.97153
G1 X201.786 Y196.053 E206.98371
G1 X201.129 Y196.558 E207.09396
G1 X201.065 Y196.622 E207.106
G1 X200.553 Y197.291 E207.21808
G1 X200.511 Y197.368 E207.22975
G1 X200.191 Y198.138 E207.34068
G1 X200.168 Y198.225 E207.35265
G1 X200.061 Y199.044 E207.46254
G1 X200.058 Y199.132 E207.47425
G1 X200.167 Y199.971 E207.58681
G1 X200.19 Y200.058 E207.59879
G1 X200.51 Y200.829 E207.70984
G1 X200.552 Y200.906 E207.72151
G0 F6000 X199.63 Y201.505
G1 F2700 E202.72151
G0 F6000 X198.564 Y199.205
G0 X201.229 Y199.102
G0 X121.065 Y199.099
G0 X120.906 Y199.718
G0 X116.31 Y199.718
G0 X116.148 Y199.099
G0 X35.987 Y199.098
G0 X38.665 Y199.1
G0 X37.56 Y201.379
;TYPE:WALL-INNER
G1 F2700 E207.72151
G1 F1200 X38.015 Y200.28 E207.87976
G1 X38.171 Y199.1 E208.03811
G1 X38.016 Y197.918 E208.19671
G1 X37.561 Y196.82 E208.35484
G1 X36.838 Y195.876 E208.51303
G1 X35.892 Y195.148 E208.67184
G1 X34.872 Y194.727 E208.81865
G1 X34.661 Y194.674 E208.84759
G1 X33.714 Y194.55 E208.97465
G1 X33.495 Y194.55 E209.00379
G1 X32.44 Y194.688 E209.14534
G1 X31.409 Y195.111 E209.2936
G1 X31.218 Y195.229 E209.32347
G1 X30.468 Y195.805 E209.44929
G1 X30.311 Y195.962 E209.47882
G1 X29.712 Y196.744 E209.60988
G1 X29.608 Y196.935 E209.63881
G1 X29.242 Y197.817 E209.76585
G1 X29.185 Y198.032 E209.79545
G1 X29.063 Y198.962 E209.92023
G1 X29.056 Y199.18 E209.94925
G1 X29.184 Y200.164 E210.08127
G1 X29.24 Y200.379 E210.11082
G1 X29.607 Y201.261 E210.23792
G1 X29.711 Y201.453 E210.26697
G1 X30.31 Y202.235 E210.39802
G1 X30.468 Y202.393 E210.42775
G1 X31.216 Y202.966 E210.5531
G1 X31.405 Y203.084 E210.58275
G1 X32.439 Y203.509 E210.73148
G1 X33.615 Y203.661 E210.88924
G1 X34.66 Y203.525 E211.02944
G1 X34.871 Y203.472 E211.05838
G1 X35.891 Y203.049 E211.20529
G1 X36.837 Y202.324 E211.36385
G1 X37.56 Y201.379 E211.52215
G0 F6000 X37.24 Y201.105
G0 X36.686 Y200.875
;TYPE:WALL-OUTER
G1 F1200 X37.041 Y200.019 E211.64544
G1 X37.162 Y199.099 E211.76889
G1 X37.042 Y198.179 E211.89233
G1 X36.687 Y197.324 E212.01549
G1 X36.124 Y196.588 E212.13877
G1 X35.388 Y196.022 E212.26229
G1 X34.558 Y195.679 E212.38178
G1 X34.474 Y195.658 E212.3933
G1 X33.649 Y195.55 E212.50399
G1 X33.56 Y195.55 E212.51583
G1 X32.699 Y195.663 E212.63136
G1 X31.864 Y196.005 E212.75141
G1 X31.786 Y196.053 E212.76359
G1 X31.129 Y196.558 E212.87384
G1 X31.065 Y196.622 E212.88588
G1 X30.553 Y197.291 E212.99796
G1 X30.511 Y197.368 E213.00963
G1 X30.191 Y198.138 E213.12056
G1 X30.168 Y198.225 E213.13253
G1 X30.061 Y199.044 E213.24242
G1 X30.058 Y199.132 E213.25413
G1 X30.167 Y199.971 E213.36669
G1 X30.19 Y200.058 E213.37867
G1 X30.51 Y200.829 E213.48972
G1 X30.552 Y200.906 E213.50139
G1 X31.064 Y201.575 E213.61347
G1 X31.128 Y201.639 E213.62551
G1 X31.786 Y202.143 E213.73578
G1 X31.863 Y202.191 E213.74785
G1 X32.698 Y202.534 E213.86795
G1 X33.615 Y202.653 E213.99097
G1 X34.473 Y202.541 E214.10609
G1 X34.557 Y202.52 E214.11761
G1 X35.387 Y202.176 E214.23714
G1 X36.123 Y201.611 E214.36058
G1 X36.686 Y200.875 E214.48386
G0 F6000 X37.638 Y201.424
G1 F2700 E209.48386
G0 F6000 X38.665 Y199.1
G0 X35.987 Y199.098
G0 X116.546 Y200.289
G0 X114.227 Y201.628
G0 X118.608 Y203.662
;TYPE:WALL-INNER
G1 F2700 E214.48386
G1 F1200 X119.789 Y203.506 E214.64235
G1 X120.889 Y203.051 E214.80072
G1 X121.835 Y202.326 E214.95929
G1 X122.56 Y201.38 E215.11785
G1 X123.015 Y200.28 E215.27622
G1 X123.171 Y199.099 E215.43471
G1 X123.015 Y197.917 E215.59332
G1 X122.559 Y196.818 E215.75162
G1 X121.836 Y195.873 E215.90992
G1 X120.889 Y195.146 E216.06876
G1 X119.787 Y194.692 E216.22732
G1 X118.608 Y194.536 E216.38554
G1 X117.429 Y194.692 E216.54376
G1 X116.327 Y195.146 E216.70233
G1 X115.38 Y195.873 E216.86116
G1 X114.657 Y196.818 E217.01946
G1 X114.201 Y197.917 E217.17776
G1 X114.045 Y199.099 E217.33638
G1 X114.201 Y200.28 E217.49486
G1 X114.656 Y201.38 E217.65323
G1 X115.381 Y202.326 E217.8118
G1 X116.327 Y203.051 E217.97037
G1 X117.427 Y203.506 E218.12874
G1 X118.608 Y203.662 E218.28722
G0 F6000 X118.529 Y203.247
G0 X118.608 Y202.653
;TYPE:WALL-OUTER
G1 F1200 X119.528 Y202.532 E218.41067
G1 X120.385 Y202.177 E218.53408
G1 X121.122 Y201.613 E218.65755
G1 X121.686 Y200.876 E218.78102
G1 X122.041 Y200.019 E218.90443
G1 X122.162 Y199.099 E219.02788
G1 X122.041 Y198.178 E219.15146
G1 X121.686 Y197.322 E219.27475
G1 X121.122 Y196.586 E219.39811
G1 X120.385 Y196.02 E219.52174
G1 X119.527 Y195.666 E219.64523
G1 X118.608 Y195.545 E219.76854
G1 X117.689 Y195.666 E219.89186
G1 X116.831 Y196.02 E220.01535
G1 X116.094 Y196.586 E220.13898
G1 X115.53 Y197.322 E220.26234
G1 X115.175 Y198.178 E220.38563
G1 X115.054 Y199.099 E220.50921
G1 X115.175 Y200.019 E220.63266
G1 X115.53 Y200.876 E220.75607
G1 X116.094 Y201.613 E220.87954
G1 X116.831 Y202.177 E221.00301
G1 X117.688 Y202.532 E221.12642
G1 X118.608 Y202.653 E221.24987
