;FLAVOR:Marlin
;TIME:4666
;Filament used: 7.24847m
;Layer height: 0.32
;MINX:12.561
;MINY:98.751
;MINZ:0.32
;MAXX:158.62
;MAXY:136.25
;MAXZ:55
;Generated with Cura_SteamEngine 4.13.1
M140 S50
M105
M190 S50
M104 S200
M105
M109 S200
M82 ;absolute extrusion mode
; Ender 3 Custom Start G-code
G92 E0 ; Reset Extruder
G28 ; Home all axes
G1 Z2.0 F3000 ; Move Z Axis up little to prevent scratching of Heat Bed
G1 X0.1 Y20 Z0.3 F5000.0 ; Move to start position
G1 X0.1 Y200.0 Z0.3 F1500.0 E15 ; Draw the first line
G1 X0.4 Y200.0 Z0.3 F5000.0 ; Move to side a little
G1 X0.4 Y20 Z0.3 F1500.0 E30 ; Draw the second line
G92 E0 ; Reset Extruder
G1 Z2.0 F3000 ; Move Z Axis up little to prevent scratching of Heat Bed
G1 X5 Y20 Z0.3 F5000.0 ; Move over to prevent blob squish
G92 E0
G92 E0
G1 F2700 E-5
;LAYER_COUNT:156
;LAYER:0
M107
G0 F6000 X103.197 Y103.233 Z0.32
;TYPE:SKIRT
G1 F2700 E0
G1 F1200 X103.876 Y102.653 E0.1188
G1 X104.384 Y102.25 E0.20507
G1 X104.71 Y102.001 E0.25965
G1 X105.023 Y101.769 E0.31148
G1 X105.849 Y101.206 E0.44447
G1 X106.718 Y100.711 E0.57753
G1 X107.468 Y100.354 E0.68803
G1 X108.08 Y100.087 E0.77687
G1 X108.453 Y99.931 E0.83065
G1 X108.797 Y99.794 E0.87992
G1 X109.74 Y99.462 E1.01292
G1 X110.706 Y99.206 E1.14588
G1 X111.565 Y99.046 E1.26212
G1 X112.244 Y98.944 E1.35347
G1 X112.673 Y98.887 E1.41105
G1 X113.073 Y98.841 E1.46461
G1 X114.098 Y98.765 E1.60135
G1 X114.346 Y98.757 E1.63437
G1 X114.749 Y98.751 E1.68799
G1 X141.443 Y98.751 E5.23937
G1 X142.32 Y98.762 E5.35606
G1 X143.425 Y98.827 E5.50332
G1 X143.793 Y98.865 E5.55254
G1 X144.304 Y98.929 E5.62105
G1 X144.938 Y99.021 E5.70629
G1 X145.921 Y99.204 E5.83931
G1 X146.886 Y99.465 E5.97231
G1 X147.732 Y99.764 E6.09168
G1 X148.335 Y100.002 E6.17793
G1 X148.674 Y100.141 E6.22667
G1 X149.04 Y100.298 E6.27966
G1 X149.942 Y100.729 E6.41266
G1 X150.807 Y101.23 E6.54565
G1 X151.548 Y101.738 E6.66517
G1 X152.075 Y102.128 E6.75239
G1 X152.396 Y102.374 E6.8062
G1 X152.698 Y102.613 E6.85744
G1 X153.457 Y103.264 E6.99047
G1 X154.161 Y103.974 E7.12349
G1 X154.729 Y104.641 E7.24004
G1 X155.142 Y105.161 E7.32839
G1 X155.378 Y105.467 E7.3798
G1 X155.603 Y105.769 E7.42991
G1 X156.168 Y106.594 E7.56294
G1 X156.665 Y107.461 E7.69589
G1 X157.042 Y108.252 E7.81247
G1 X157.319 Y108.889 E7.90488
G1 X157.472 Y109.257 E7.9579
G1 X157.598 Y109.574 E8.00328
G1 X157.93 Y110.517 E8.13629
G1 X158.185 Y111.484 E8.26934
G1 X158.341 Y112.317 E8.38209
G1 X158.432 Y112.917 E8.46282
G1 X158.482 Y113.289 E8.51276
G1 X158.528 Y113.669 E8.56369
G1 X158.599 Y114.47 E8.67067
G1 X158.604 Y114.559 E8.68253
G1 X158.62 Y115.559 E8.81559
G1 X158.54 Y116.705 E8.96842
G1 X158.471 Y117.298 E9.04785
G1 X158.423 Y117.662 E9.09669
G1 X158.362 Y118.079 E9.15276
G1 X158.178 Y119.062 E9.28581
G1 X157.916 Y120.027 E9.41884
G1 X157.62 Y120.862 E9.53671
G1 X157.4 Y121.419 E9.61638
G1 X157.271 Y121.734 E9.66167
G1 X157.099 Y122.137 E9.71996
G1 X156.455 Y123.432 E9.91238
G1 X156.133 Y123.996 E9.99878
G1 X154.898 Y126.235 E10.33896
G1 X153.911 Y128.148 E10.62535
G1 X153.281 Y129.391 E10.81075
G1 X152.793 Y130.264 E10.94381
G1 X152.238 Y131.095 E11.07675
G1 X151.618 Y131.88 E11.20983
G1 X150.937 Y132.612 E11.34285
G1 X150.2 Y133.287 E11.47581
G1 X149.411 Y133.901 E11.60882
G1 X148.575 Y134.451 E11.74195
G1 X147.699 Y134.931 E11.87484
G1 X146.787 Y135.341 E12.00787
G1 X145.845 Y135.676 E12.14088
G1 X144.879 Y135.934 E12.27391
G1 X143.895 Y136.115 E12.40701
G1 X142.518 Y136.234 E12.59089
G1 X142.195 Y136.244 E12.63389
G1 X141.808 Y136.25 E12.68538
G1 X137.056 Y136.249 E13.31759
G1 X136.364 Y136.239 E13.40966
G1 X135.662 Y136.209 E13.50314
G1 X134.549 Y136.13 E13.65159
G1 X132.007 Y135.986 E13.99032
G1 X129.525 Y135.915 E14.32066
G1 X127.049 Y135.915 E14.65007
G1 X124.575 Y135.984 E14.97934
G1 X122.084 Y136.124 E15.31127
G1 X121.205 Y136.194 E15.42858
G1 X120.803 Y136.22 E15.48217
G1 X120.431 Y136.236 E15.53171
G1 X120.111 Y136.245 E15.5743
G1 X119.76 Y136.25 E15.621
G1 X115.011 Y136.249 E16.25281
G1 X114.31 Y136.239 E16.34608
G1 X113.311 Y136.184 E16.47919
G1 X112.321 Y136.051 E16.61209
G1 X111.344 Y135.838 E16.74512
G1 X110.387 Y135.548 E16.87816
G1 X109.456 Y135.183 E17.0112
G1 X108.558 Y134.744 E17.14418
G1 X107.697 Y134.235 E17.27725
G1 X106.88 Y133.658 E17.41031
G1 X106.112 Y133.019 E17.54323
G1 X105.397 Y132.32 E17.67626
G1 X104.741 Y131.566 E17.80922
G1 X104.146 Y130.762 E17.94229
G1 X103.618 Y129.913 E18.07531
G1 X103.328 Y129.37 E18.15721
G1 X102.107 Y126.95 E18.51782
G1 X100.914 Y124.745 E18.85136
G1 X100.181 Y123.458 E19.04841
G1 X99.577 Y122.249 E19.22821
G1 X99.316 Y121.648 E19.31538
G1 X99.164 Y121.284 E19.36786
G1 X99.021 Y120.924 E19.41939
G1 X98.689 Y119.98 E19.55253
G1 X98.434 Y119.014 E19.68545
G1 X98.275 Y118.157 E19.80141
G1 X98.172 Y117.468 E19.89409
G1 X98.117 Y117.052 E19.94992
G1 X98.074 Y116.679 E19.99987
G1 X98 Y115.682 E20.13288
G1 X98.005 Y114.682 E20.26592
G1 X98.048 Y114.067 E20.34794
G1 X98.068 Y113.856 E20.37613
G1 X98.102 Y113.542 E20.41815
G1 X98.125 Y113.351 E20.44375
G1 X98.168 Y113.027 E20.48723
G1 X98.254 Y112.442 E20.5659
G1 X98.439 Y111.459 E20.69897
G1 X98.582 Y110.896 E20.77625
G1 X98.601 Y110.828 E20.78564
G1 X99.018 Y109.59 E20.95944
G1 X99.216 Y109.09 E21.03099
G1 X99.349 Y108.768 E21.07734
G1 X99.538 Y108.327 E21.14117
G1 X99.968 Y107.425 E21.27411
G1 X100.469 Y106.559 E21.40721
G1 X100.903 Y105.92 E21.50998
G1 X101.173 Y105.551 E21.57081
G1 X101.483 Y105.144 E21.63888
G1 X101.837 Y104.696 E21.71484
G1 X102.488 Y103.937 E21.84787
G1 X103.197 Y103.233 E21.9808
G0 F6000 X103.931 Y103.917
G1 F1200 X104.498 Y103.437 E22.07964
G1 X105.006 Y103.034 E22.1659
G1 X105.305 Y102.804 E22.21609
G1 X105.618 Y102.572 E22.26792
G1 X106.412 Y102.034 E22.39552
G1 X107.247 Y101.563 E22.52307
G1 X107.867 Y101.27 E22.6143
G1 X108.479 Y101.003 E22.70313
G1 X108.823 Y100.86 E22.75269
G1 X109.167 Y100.723 E22.80196
G1 X110.072 Y100.406 E22.92953
G1 X111 Y100.165 E23.05709
G1 X111.714 Y100.035 E23.15364
G1 X112.393 Y99.933 E23.24499
G1 X112.787 Y99.88 E23.29788
G1 X113.187 Y99.834 E23.35144
G1 X114.13 Y99.765 E23.47724
G1 X114.378 Y99.757 E23.51025
G1 X114.749 Y99.751 E23.55961
G1 X141.443 Y99.751 E27.111
G1 X142.306 Y99.762 E27.22582
G1 X143.322 Y99.822 E27.36123
G1 X143.69 Y99.86 E27.41044
G1 X144.16 Y99.918 E27.47345
G1 X144.794 Y100.01 E27.55868
G1 X145.737 Y100.187 E27.68633
G1 X146.661 Y100.442 E27.81385
G1 X147.365 Y100.694 E27.91333
G1 X147.968 Y100.932 E27.99958
G1 X148.28 Y101.06 E28.04444
G1 X148.646 Y101.217 E28.09743
G1 X149.51 Y101.632 E28.22495
G1 X150.338 Y102.117 E28.35261
G1 X150.953 Y102.542 E28.45207
G1 X151.48 Y102.932 E28.53929
G1 X151.776 Y103.158 E28.58884
G1 X152.078 Y103.397 E28.64007
G1 X152.804 Y104.023 E28.76761
G1 X153.476 Y104.707 E28.89518
G1 X153.946 Y105.263 E28.99204
G1 X154.359 Y105.783 E29.08038
G1 X154.576 Y106.064 E29.12762
G1 X154.801 Y106.366 E29.17772
G1 X155.341 Y107.159 E29.30536
G1 X155.814 Y107.993 E29.43292
G1 X156.125 Y108.651 E29.52974
G1 X156.402 Y109.288 E29.62216
G1 X156.543 Y109.626 E29.67088
G1 X156.669 Y109.943 E29.71626
G1 X156.986 Y110.848 E29.84384
G1 X157.226 Y111.777 E29.97149
G1 X157.352 Y112.467 E30.06481
G1 X157.443 Y113.067 E30.14554
G1 X157.49 Y113.409 E30.19147
G1 X157.536 Y113.789 E30.2424
G1 X157.601 Y114.526 E30.34083
G1 X157.606 Y114.615 E30.35269
G1 X157.62 Y115.574 E30.48029
G1 X157.547 Y116.589 E30.61567
G1 X157.478 Y117.182 E30.6951
G1 X157.434 Y117.518 E30.74018
G1 X157.373 Y117.935 E30.79625
G1 X157.195 Y118.877 E30.92379
G1 X156.939 Y119.801 E31.05135
G1 X156.69 Y120.495 E31.14944
G1 X156.47 Y121.052 E31.22912
G1 X156.351 Y121.341 E31.2707
G1 X156.179 Y121.744 E31.32899
G1 X155.587 Y122.936 E31.50606
G1 X155.241 Y123.542 E31.5989
G1 X154.036 Y125.727 E31.93087
G1 X152.981 Y127.771 E32.23689
G1 X152.389 Y128.939 E32.4111
G1 X151.92 Y129.776 E32.53874
G1 X151.383 Y130.57 E32.66627
G1 X150.782 Y131.317 E32.79382
G1 X150.12 Y132.012 E32.92152
G1 X149.403 Y132.648 E33.04903
G1 X148.636 Y133.223 E33.17656
G1 X147.823 Y133.732 E33.30417
G1 X146.971 Y134.172 E33.43174
G1 X146.085 Y134.539 E33.55933
G1 X145.172 Y134.831 E33.68686
G1 X144.237 Y135.046 E33.8145
G1 X143.288 Y135.182 E33.94204
G1 X142.487 Y135.234 E34.04883
G1 X142.164 Y135.244 E34.09182
G1 X141.808 Y135.25 E34.13919
G1 X137.071 Y135.249 E34.76941
G1 X136.379 Y135.239 E34.86148
G1 X135.733 Y135.211 E34.94751
G1 X134.68 Y135.136 E35.08795
G1 X132.019 Y134.986 E35.44253
G1 X129.554 Y134.915 E35.77062
G1 X127.057 Y134.915 E36.10282
G1 X124.525 Y134.986 E36.43981
G1 X121.994 Y135.128 E36.77706
G1 X121.126 Y135.197 E36.89291
G1 X120.746 Y135.222 E36.94357
G1 X120.403 Y135.236 E36.98924
G1 X120.083 Y135.245 E37.03183
G1 X119.76 Y135.25 E37.07481
G1 X115.025 Y135.249 E37.70476
G1 X114.324 Y135.239 E37.79803
G1 X113.367 Y135.185 E37.92555
G1 X112.417 Y135.052 E38.05317
G1 X111.482 Y134.84 E38.18072
G1 X110.567 Y134.551 E38.30838
G1 X109.68 Y134.187 E38.43594
G1 X108.826 Y133.75 E38.56357
G1 X108.012 Y133.243 E38.69115
G1 X107.243 Y132.671 E38.81866
G1 X106.524 Y132.036 E38.94628
G1 X105.861 Y131.344 E39.07378
G1 X105.257 Y130.599 E39.20137
G1 X104.718 Y129.806 E39.32894
G1 X104.22 Y128.919 E39.46427
G1 X102.992 Y126.485 E39.82697
G1 X101.778 Y124.241 E40.1664
G1 X101.05 Y122.963 E40.36208
G1 X100.494 Y121.851 E40.52748
G1 X100.233 Y121.25 E40.61465
G1 X100.093 Y120.914 E40.66308
G1 X99.95 Y120.554 E40.71462
G1 X99.634 Y119.649 E40.84215
G1 X99.394 Y118.721 E40.96967
G1 X99.264 Y118.009 E41.06596
G1 X99.161 Y117.32 E41.15864
G1 X99.111 Y116.937 E41.21003
G1 X99.068 Y116.564 E41.25998
G1 X98.998 Y115.608 E41.38751
G1 X99.008 Y114.649 E41.5151
G1 X99.043 Y114.162 E41.58006
G1 X99.063 Y113.951 E41.60826
G1 X99.094 Y113.661 E41.64706
G1 X99.117 Y113.47 E41.67266
G1 X99.157 Y113.172 E41.71266
G1 X99.243 Y112.587 E41.79132
G1 X99.422 Y111.645 E41.91889
G1 X99.564 Y111.097 E41.9942
G1 X99.948 Y109.958 E42.15412
G1 X100.146 Y109.458 E42.22566
G1 X100.268 Y109.162 E42.26826
G1 X100.457 Y108.721 E42.33209
G1 X100.871 Y107.856 E42.45967
G1 X101.356 Y107.029 E42.58722
G1 X101.713 Y106.506 E42.67146
G1 X101.971 Y106.153 E42.72963
G1 X102.268 Y105.764 E42.79475
G1 X102.622 Y105.316 E42.87071
G1 X103.247 Y104.589 E42.99826
G1 X103.931 Y103.917 E43.12583
G0 F6000 X104.663 Y104.604
G1 F1200 X105.119 Y104.22 E43.20514
G1 X105.627 Y103.817 E43.29141
G1 X105.901 Y103.608 E43.33726
G1 X106.214 Y103.376 E43.38909
G1 X106.973 Y102.863 E43.51097
G1 X107.774 Y102.418 E43.63288
G1 X108.267 Y102.187 E43.70531
G1 X108.879 Y101.92 E43.79414
G1 X109.193 Y101.789 E43.8394
G1 X109.537 Y101.652 E43.88867
G1 X110.402 Y101.351 E44.01051
G1 X111.291 Y101.126 E44.13252
G1 X111.862 Y101.024 E44.20969
G1 X112.541 Y100.922 E44.30103
G1 X112.901 Y100.874 E44.34935
G1 X113.301 Y100.828 E44.40292
G1 X114.162 Y100.764 E44.51778
G1 X114.41 Y100.756 E44.55079
G1 X114.749 Y100.751 E44.5959
G1 X141.443 Y100.751 E48.14728
G1 X142.291 Y100.762 E48.26011
G1 X143.22 Y100.817 E48.38392
G1 X143.588 Y100.855 E48.43314
G1 X144.017 Y100.908 E48.49065
G1 X144.651 Y101 E48.57588
G1 X145.551 Y101.171 E48.69776
G1 X146.433 Y101.42 E48.81969
G1 X146.998 Y101.624 E48.89961
G1 X147.601 Y101.862 E48.98585
G1 X147.885 Y101.979 E49.02672
G1 X148.251 Y102.136 E49.0797
G1 X149.077 Y102.534 E49.20168
G1 X149.865 Y103.002 E49.32361
G1 X150.358 Y103.346 E49.40359
G1 X150.885 Y103.736 E49.49082
G1 X151.155 Y103.942 E49.536
G1 X151.457 Y104.181 E49.58724
G1 X152.15 Y104.781 E49.70919
G1 X152.788 Y105.438 E49.83103
G1 X153.163 Y105.885 E49.90865
G1 X153.576 Y106.405 E49.997
G1 X153.774 Y106.662 E50.04016
G1 X153.999 Y106.964 E50.09026
G1 X154.514 Y107.722 E50.21218
G1 X154.961 Y108.522 E50.3341
G1 X155.208 Y109.05 E50.41165
G1 X155.485 Y109.687 E50.50406
G1 X155.613 Y109.996 E50.54856
G1 X155.739 Y110.313 E50.59394
G1 X156.04 Y111.178 E50.71579
G1 X156.265 Y112.066 E50.83767
G1 X156.363 Y112.617 E50.91212
G1 X156.454 Y113.217 E50.99286
G1 X156.497 Y113.529 E51.03476
G1 X156.543 Y113.909 E51.08569
G1 X156.602 Y114.582 E51.17556
G1 X156.607 Y114.671 E51.18742
G1 X156.619 Y115.587 E51.3093
G1 X156.554 Y116.474 E51.42762
G1 X156.485 Y117.067 E51.50705
G1 X156.444 Y117.373 E51.54812
G1 X156.383 Y117.79 E51.60419
G1 X156.211 Y118.69 E51.72609
G1 X155.961 Y119.571 E51.84793
G1 X155.76 Y120.127 E51.92659
G1 X155.54 Y120.684 E52.00626
G1 X155.431 Y120.949 E52.04438
G1 X155.259 Y121.352 E52.10268
G1 X154.719 Y122.439 E52.26415
G1 X154.409 Y122.981 E52.34722
G1 X153.128 Y125.305 E52.70027
G1 X152.127 Y127.244 E52.99058
G1 X151.497 Y128.487 E53.17598
G1 X151.047 Y129.285 E53.29786
G1 X150.53 Y130.042 E53.41982
G1 X149.948 Y130.75 E53.54175
G1 X149.308 Y131.405 E53.66359
G1 X148.612 Y132.001 E53.78549
G1 X147.867 Y132.535 E53.90744
G1 X147.078 Y133.001 E54.02935
G1 X146.252 Y133.397 E54.15122
G1 X145.395 Y133.72 E54.27306
G1 X144.512 Y133.966 E54.39501
G1 X143.611 Y134.135 E54.51697
G1 X142.456 Y134.235 E54.67121
G1 X142.133 Y134.245 E54.7142
G1 X141.808 Y134.25 E54.75744
G1 X137.085 Y134.249 E55.38579
G1 X136.393 Y134.239 E55.47787
G1 X135.803 Y134.214 E55.55643
G1 X134.66 Y134.133 E55.70888
G1 X132.105 Y133.988 E56.04934
G1 X129.547 Y133.915 E56.3898
G1 X127.029 Y133.915 E56.7248
G1 X124.476 Y133.986 E57.06458
G1 X121.946 Y134.129 E57.40171
G1 X121.047 Y134.2 E57.52169
G1 X120.688 Y134.223 E57.56955
G1 X120.375 Y134.237 E57.61123
G1 X120.055 Y134.246 E57.65382
G1 X119.76 Y134.25 E57.69307
G1 X115.039 Y134.249 E58.32115
G1 X114.338 Y134.239 E58.41442
G1 X113.423 Y134.186 E58.53636
G1 X112.517 Y134.053 E58.65819
G1 X111.625 Y133.842 E58.78013
G1 X110.755 Y133.554 E58.90206
G1 X109.914 Y133.191 E59.02392
G1 X109.107 Y132.757 E59.14583
G1 X108.342 Y132.253 E59.26771
G1 X107.623 Y131.685 E59.38961
G1 X106.956 Y131.056 E59.51158
G1 X106.347 Y130.372 E59.63342
G1 X105.8 Y129.637 E59.75532
G1 X105.113 Y128.469 E59.93559
G1 X103.87 Y126.006 E60.30264
G1 X102.661 Y123.771 E60.6407
G1 X101.919 Y122.468 E60.84019
G1 X101.411 Y121.453 E60.99119
G1 X101.15 Y120.852 E61.07836
G1 X101.023 Y120.545 E61.12256
G1 X100.88 Y120.185 E61.1741
G1 X100.579 Y119.32 E61.29595
G1 X100.355 Y118.431 E61.41792
G1 X100.253 Y117.861 E61.49495
G1 X100.15 Y117.172 E61.58764
G1 X100.104 Y116.822 E61.6346
G1 X100.061 Y116.449 E61.68456
G1 X99.996 Y115.536 E61.80633
G1 X100.039 Y114.256 E61.97672
G1 X100.087 Y113.781 E62.04023
G1 X100.11 Y113.59 E62.06583
G1 X100.147 Y113.318 E62.10235
G1 X100.233 Y112.733 E62.18101
G1 X100.508 Y111.434 E62.35766
G1 X100.527 Y111.366 E62.36706
G1 X100.878 Y110.326 E62.51309
G1 X101.076 Y109.826 E62.58463
G1 X101.187 Y109.556 E62.62347
G1 X101.376 Y109.115 E62.6873
G1 X101.773 Y108.289 E62.80923
G1 X102.241 Y107.501 E62.93116
G1 X102.523 Y107.093 E62.99714
G1 X102.77 Y106.755 E63.05284
G1 X103.053 Y106.384 E63.11492
G1 X103.407 Y105.936 E63.19088
G1 X104.005 Y105.243 E63.31266
G1 X104.663 Y104.604 E63.43469
G1 F2700 E58.43469
;MESH:untitledPinaTinnyStlAndPringle_v5_007.stl
G0 F6000 X110.435 Y117.578
G0 X113.829 Y124.403
G0 X120.743 Y124.403
G0 X136.636 Y118.941
G0 X137.63 Y120.018
G0 X141.024 Y117.883
;TYPE:WALL-INNER
G1 F2700 E63.43469
G1 F1200 X141.344 Y117.588 E63.49259
G1 X141.648 Y117.396 E63.54042
G1 X142.242 Y116.83 E63.64958
G1 X142.718 Y116.059 E63.77013
G1 X142.98 Y115.189 E63.89101
G1 X143.01 Y114.276 E64.01254
G1 X142.809 Y113.4 E64.13211
G1 X142.5 Y112.81 E64.22072
G1 X142.78 Y112.847
G1 X143.379 Y113.096 E64.2629
G1 X143.896 Y113.492 E64.34954
G1 X144.294 Y114.011 E64.43656
G1 X144.539 Y114.601 E64.52155
G1 X144.625 Y115.252 E64.60891
G1 X144.539 Y115.894 E64.69509
G1 X144.294 Y116.49 E64.78082
G1 X143.896 Y117.007 E64.86762
G1 X143.38 Y117.404 E64.95424
G1 X142.78 Y117.653 E65.04066
G1 X141.024 Y117.883 E65.23454
G0 F6000 X138.504 Y120.853
G0 X138.03 Y122.25
G1 F1200 X138.03 Y120.645 E65.44807
G1 X139.801 Y119.012 E65.76856
G1 X140.638 Y118.239 E65.92014
G1 X140.638 Y119.379 E66.00236
G1 X140.638 Y122.25 E66.38432
G1 X138.03 Y122.25 E66.73129
G1 F2700 E61.73129
G0 F6000 X137.298 Y120.28
G0 X135.865 Y120.28
G0 X119.982 Y118.94
G0 X118.99 Y120.018
G0 X115.594 Y117.883
G1 F2700 E66.73129
G1 F1200 X113.84 Y117.653 E66.96664
