;FLAVOR:Marlin
;TIME:14024
;Filament used: 26.6958m
;Layer height: 0.32
;MINX:55.007
;MINY:114.117
;MINZ:0.32
;MAXX:141.355
;MAXY:139.337
;MAXZ:200
;Generated with Cura_SteamEngine 4.13.1
M140 S50
M105
M190 S50
M104 S200
M105
M109 S200
M82 ;absolute extrusion mode
; Ender 3 Custom Start G-code
G92 E0 ; Reset Extruder
G28 ; Home all axes
G1 Z2.0 F3000 ; Move Z Axis up little to prevent scratching of Heat Bed
G1 X0.1 Y20 Z0.3 F5000.0 ; Move to start position
G1 X0.1 Y200.0 Z0.3 F1500.0 E15 ; Draw the first line
G1 X0.4 Y200.0 Z0.3 F5000.0 ; Move to side a little
G1 X0.4 Y20 Z0.3 F1500.0 E30 ; Draw the second line
G92 E0 ; Reset Extruder
G1 Z2.0 F3000 ; Move Z Axis up little to prevent scratching of Heat Bed
G1 X5 Y20 Z0.3 F5000.0 ; Move over to prevent blob squish
G92 E0
G92 E0
G1 F2700 E-5
;LAYER_COUNT:625
;LAYER:0
M107
G0 F6000 X59.351 Y116.855 Z0.32
;TYPE:SKIRT
G1 F2700 E0
G1 F1200 X60.069 Y116.566 E0.10297
G1 X60.814 Y116.353 E0.20606
G1 X61.576 Y116.217 E0.30904
G1 X62.507 Y116.159 E0.43314
G1 X66.054 Y116.159 E0.90503
G1 X66.827 Y116.199 E1.00801
G1 X67.592 Y116.318 E1.11101
G1 X68.341 Y116.516 E1.21408
G1 X69.065 Y116.79 E1.31707
G1 X69.758 Y117.137 E1.42018
G1 X69.792 Y117.159 E1.42557
G1 X76.426 Y117.159 E2.30816
G1 X76.999 Y116.856 E2.39439
G1 X77.717 Y116.567 E2.49736
G1 X78.462 Y116.353 E2.60048
G1 X79.224 Y116.217 E2.70346
G1 X80.157 Y116.159 E2.82783
G1 X82.874 Y116.159 E3.1893
G1 X82.932 Y116.1 E3.20031
G1 X83.528 Y115.605 E3.30338
G1 X84.171 Y115.175 E3.40629
G1 X84.856 Y114.813 E3.50937
G1 X85.574 Y114.524 E3.61234
G1 X86.319 Y114.311 E3.71543
G1 X87.081 Y114.175 E3.8184
G1 X88.012 Y114.117 E3.94251
G1 X91.56 Y114.117 E4.41453
G1 X92.333 Y114.157 E4.51751
G1 X93.098 Y114.276 E4.62051
G1 X93.847 Y114.474 E4.72358
G1 X94.571 Y114.748 E4.82657
G1 X95.264 Y115.095 E4.92968
G1 X95.298 Y115.117 E4.93507
G1 X101.932 Y115.117 E5.81766
G1 X102.505 Y114.814 E5.90389
G1 X103.223 Y114.525 E6.00686
G1 X103.968 Y114.311 E6.10999
G1 X104.73 Y114.175 E6.21297
G1 X105.663 Y114.117 E6.33733
G1 X109.21 Y114.117 E6.80923
G1 X109.983 Y114.157 E6.9122
G1 X110.748 Y114.276 E7.0152
G1 X111.497 Y114.474 E7.11827
G1 X112.221 Y114.748 E7.22126
G1 X112.914 Y115.095 E7.32437
G1 X113.566 Y115.512 E7.42734
G1 X114.172 Y115.994 E7.53035
G1 X114.726 Y116.535 E7.63337
G1 X115.22 Y117.131 E7.73636
G1 X115.651 Y117.775 E7.83946
G1 X115.779 Y118.017 E7.87588
G1 X116.207 Y118.017 E7.93282
G1 X116.98 Y118.057 E8.0358
G1 X117.745 Y118.176 E8.1388
G1 X118.494 Y118.374 E8.24187
G1 X119.218 Y118.648 E8.34486
G1 X119.911 Y118.995 E8.44797
G1 X119.945 Y119.017 E8.45335
G1 X126.579 Y119.017 E9.33594
G1 X127.152 Y118.714 E9.42218
G1 X127.87 Y118.425 E9.52515
G1 X128.615 Y118.211 E9.62827
G1 X129.377 Y118.075 E9.73125
G1 X130.31 Y118.017 E9.85562
G1 X133.857 Y118.017 E10.32751
G1 X134.63 Y118.057 E10.43049
G1 X135.395 Y118.176 E10.53349
G1 X136.144 Y118.374 E10.63656
G1 X136.868 Y118.648 E10.73955
G1 X137.561 Y118.995 E10.84266
G1 X138.213 Y119.412 E10.94562
G1 X138.819 Y119.894 E11.04864
G1 X139.373 Y120.435 E11.15166
G1 X139.867 Y121.031 E11.25465
G1 X140.298 Y121.675 E11.35774
G1 X140.66 Y122.359 E11.4607
G1 X140.949 Y123.077 E11.56367
G1 X141.163 Y123.822 E11.66679
G1 X141.299 Y124.584 E11.76977
G1 X141.355 Y125.356 E11.87275
G1 X141.332 Y126.13 E11.97577
G1 X141.229 Y126.898 E12.07886
G1 X141.047 Y127.65 E12.18179
G1 X140.789 Y128.38 E12.2848
G1 X140.457 Y129.08 E12.38787
G1 X140.054 Y129.741 E12.49087
G1 X139.586 Y130.358 E12.5939
G1 X138.94 Y131.031 E12.71801
G1 X138.593 Y131.351 E12.7808
G1 X138.593 Y131.837 E12.84546
G1 X138.553 Y132.61 E12.94844
G1 X138.434 Y133.375 E13.05144
G1 X138.236 Y134.124 E13.15451
G1 X137.962 Y134.848 E13.2575
G1 X137.615 Y135.541 E13.36061
G1 X137.198 Y136.193 E13.46357
G1 X136.716 Y136.799 E13.56659
G1 X136.175 Y137.353 E13.66961
G1 X135.579 Y137.847 E13.7726
G1 X134.935 Y138.278 E13.87569
G1 X134.251 Y138.64 E13.97865
G1 X133.533 Y138.929 E14.08162
G1 X132.788 Y139.143 E14.18474
G1 X132.026 Y139.279 E14.28772
G1 X131.093 Y139.337 E14.41209
G1 X115.423 Y139.337 E16.49683
G1 X114.65 Y139.297 E16.59981
G1 X113.885 Y139.178 E16.70281
G1 X113.136 Y138.98 E16.80588
G1 X112.412 Y138.706 E16.90887
G1 X111.719 Y138.359 E17.01198
G1 X111.067 Y137.942 E17.11495
G1 X110.461 Y137.46 E17.21796
G1 X109.907 Y136.919 E17.32098
G1 X109.413 Y136.323 E17.42397
G1 X108.982 Y135.679 E17.52706
G1 X108.671 Y135.091 E17.61556
G1 X108.141 Y135.243 E17.68891
G1 X107.379 Y135.379 E17.79189
G1 X106.446 Y135.437 E17.91626
G1 X90.776 Y135.437 E20.001
G1 X90.003 Y135.397 E20.10398
G1 X89.238 Y135.278 E20.20698
G1 X88.489 Y135.08 E20.31005
G1 X87.765 Y134.806 E20.41304
G1 X87.072 Y134.459 E20.51615
G1 X86.989 Y134.406 E20.52925
G1 X86.564 Y134.941 E20.62015
G1 X86.023 Y135.495 E20.72317
G1 X85.427 Y135.989 E20.82616
G1 X84.783 Y136.42 E20.92926
G1 X84.099 Y136.782 E21.03221
G1 X83.381 Y137.071 E21.13518
G1 X82.636 Y137.285 E21.23831
G1 X81.874 Y137.421 E21.34129
G1 X80.941 Y137.479 E21.46565
G1 X65.271 Y137.479 E23.5504
G1 X64.498 Y137.439 E23.65338
G1 X63.733 Y137.32 E23.75638
G1 X62.984 Y137.122 E23.85945
G1 X62.26 Y136.848 E23.96243
G1 X61.567 Y136.501 E24.06554
G1 X60.915 Y136.084 E24.16851
G1 X60.309 Y135.602 E24.27153
G1 X59.755 Y135.061 E24.37454
G1 X59.261 Y134.465 E24.47753
G1 X58.83 Y133.821 E24.58063
G1 X58.468 Y133.137 E24.68359
G1 X58.179 Y132.419 E24.78656
G1 X57.965 Y131.674 E24.88968
G1 X57.829 Y130.912 E24.99266
G1 X57.771 Y129.979 E25.11702
G1 X57.771 Y129.493 E25.18168
G1 X57.424 Y129.173 E25.24448
G1 X56.882 Y128.62 E25.3475
G1 X56.401 Y128.013 E25.45053
G1 X55.984 Y127.361 E25.5535
G1 X55.637 Y126.668 E25.65661
G1 X55.364 Y125.944 E25.75955
G1 X55.166 Y125.195 E25.86262
G1 X55.047 Y124.43 E25.96562
G1 X55.007 Y123.657 E26.0686
G1 X55.047 Y122.884 E26.17158
G1 X55.167 Y122.119 E26.2746
G1 X55.365 Y121.37 E26.37767
G1 X55.639 Y120.646 E26.48066
G1 X55.986 Y119.954 E26.58365
G1 X56.403 Y119.301 E26.68672
G1 X56.885 Y118.695 E26.78974
G1 X57.427 Y118.142 E26.89276
G1 X58.023 Y117.647 E26.99583
G1 X58.666 Y117.217 E27.09874
G1 X59.351 Y116.855 E27.20182
G0 F6000 X59.978 Y117.671
G1 F1200 X60.656 Y117.428 E27.29764
G1 X61.358 Y117.261 E27.39364
G1 X62.073 Y117.173 E27.48948
G1 X62.507 Y117.159 E27.54725
G1 X66.054 Y117.159 E28.01914
G1 X66.774 Y117.199 E28.11508
G1 X67.485 Y117.318 E28.21099
G1 X68.178 Y117.516 E28.30687
G1 X68.845 Y117.789 E28.40276
G1 X69.478 Y118.134 E28.49867
G1 X69.514 Y118.159 E28.5045
G1 X76.699 Y118.159 E29.46039
G1 X77.264 Y117.838 E29.54685
G1 X77.926 Y117.554 E29.64268
G1 X78.616 Y117.344 E29.73864
G1 X79.325 Y117.213 E29.83456
G1 X80.157 Y117.159 E29.94548
G1 X83.292 Y117.159 E30.36257
G1 X83.665 Y116.784 E30.43293
G1 X84.227 Y116.333 E30.5288
G1 X84.835 Y115.946 E30.62468
G1 X85.483 Y115.629 E30.72066
G1 X86.161 Y115.386 E30.81648
G1 X86.863 Y115.219 E30.91248
G1 X87.578 Y115.131 E31.00832
G1 X88.012 Y115.117 E31.06609
G1 X91.56 Y115.117 E31.53812
G1 X92.28 Y115.157 E31.63405
G1 X92.991 Y115.276 E31.72996
G1 X93.684 Y115.474 E31.82585
G1 X94.351 Y115.747 E31.92173
G1 X94.984 Y116.092 E32.01764
G1 X95.02 Y116.117 E32.02347
G1 X102.205 Y116.117 E32.97937
G1 X102.77 Y115.796 E33.06582
G1 X103.432 Y115.512 E33.16166
G1 X104.122 Y115.302 E33.25761
G1 X104.831 Y115.171 E33.35353
G1 X105.663 Y115.117 E33.46446
G1 X109.21 Y115.117 E33.93635
G1 X109.93 Y115.157 E34.03229
G1 X110.641 Y115.276 E34.1282
G1 X111.334 Y115.474 E34.22408
G1 X112.001 Y115.747 E34.31997
G1 X112.634 Y116.092 E34.41588
G1 X113.225 Y116.505 E34.5118
G1 X113.766 Y116.981 E34.60767
G1 X114.251 Y117.514 E34.70354
G1 X114.675 Y118.097 E34.79945
G1 X115.031 Y118.724 E34.89537
G1 X115.157 Y119.017 E34.9378
G1 X116.207 Y119.017 E35.0775
G1 X116.927 Y119.057 E35.17343
G1 X117.638 Y119.176 E35.26934
G1 X118.331 Y119.374 E35.36523
G1 X118.998 Y119.647 E35.46111
G1 X119.631 Y119.992 E35.55702
G1 X119.667 Y120.017 E35.56285
G1 X126.852 Y120.017 E36.51875
G1 X127.417 Y119.696 E36.6052
G1 X128.079 Y119.412 E36.70104
G1 X128.769 Y119.202 E36.79699
G1 X129.478 Y119.071 E36.89291
G1 X130.31 Y119.017 E37.00384
G1 X133.857 Y119.017 E37.47573
G1 X134.577 Y119.057 E37.57167
G1 X135.288 Y119.176 E37.66758
G1 X135.981 Y119.374 E37.76346
G1 X136.648 Y119.647 E37.85935
G1 X137.281 Y119.992 E37.95526
G1 X137.872 Y120.405 E38.05118
G1 X138.413 Y120.881 E38.14705
G1 X138.898 Y121.414 E38.24292
G1 X139.322 Y121.997 E38.33883
G1 X139.678 Y122.624 E38.43475
G1 X139.962 Y123.286 E38.53059
G1 X140.172 Y123.976 E38.62654
G1 X140.303 Y124.685 E38.72247
G1 X140.356 Y125.404 E38.81838
G1 X140.329 Y126.124 E38.91424
G1 X140.222 Y126.837 E39.01016
G1 X140.036 Y127.533 E39.106
G1 X139.775 Y128.205 E39.20191
G1 X139.441 Y128.844 E39.29784
G1 X139.038 Y129.442 E39.39378
G1 X138.572 Y129.991 E39.48958
G1 X138.263 Y130.296 E39.54734
G1 X137.593 Y130.914 E39.66861
G1 X137.593 Y131.837 E39.79141
G1 X137.553 Y132.557 E39.88734
G1 X137.434 Y133.268 E39.98325
G1 X137.236 Y133.961 E40.07914
G1 X136.963 Y134.628 E40.17502
G1 X136.618 Y135.261 E40.27093
G1 X136.205 Y135.852 E40.36685
G1 X135.729 Y136.393 E40.46272
G1 X135.196 Y136.878 E40.55859
G1 X134.613 Y137.302 E40.6545
G1 X133.986 Y137.658 E40.75043
G1 X133.324 Y137.942 E40.84626
G1 X132.634 Y138.152 E40.94222
G1 X131.925 Y138.283 E41.03814
G1 X131.093 Y138.337 E41.14906
G1 X115.423 Y138.337 E43.23381
G1 X114.703 Y138.297 E43.32974
G1 X113.992 Y138.178 E43.42565
G1 X113.299 Y137.98 E43.52154
G1 X112.632 Y137.707 E43.61742
G1 X111.999 Y137.362 E43.71333
G1 X111.408 Y136.949 E43.80925
G1 X110.867 Y136.473 E43.90512
G1 X110.382 Y135.94 E44.001
G1 X109.958 Y135.357 E44.0969
G1 X109.602 Y134.73 E44.19283
G1 X109.318 Y134.068 E44.28866
G1 X109.237 Y133.802 E44.32565
G1 X108.677 Y134.042 E44.40671
G1 X107.987 Y134.252 E44.50267
G1 X107.278 Y134.383 E44.59859
G1 X106.446 Y134.437 E44.70951
G1 X90.776 Y134.437 E46.79426
G1 X90.056 Y134.397 E46.89019
G1 X89.345 Y134.278 E46.9861
G1 X88.652 Y134.08 E47.08199
G1 X87.985 Y133.807 E47.17787
G1 X87.352 Y133.462 E47.27378
G1 X86.761 Y133.049 E47.3697
G1 X86.692 Y132.988 E47.38196
G1 X86.466 Y133.403 E47.44482
G1 X86.053 Y133.994 E47.54075
G1 X85.577 Y134.535 E47.63662
G1 X85.044 Y135.02 E47.73249
G1 X84.461 Y135.444 E47.8284
G1 X83.834 Y135.8 E47.92432
G1 X83.172 Y136.084 E48.02016
G1 X82.482 Y136.294 E48.11611
G1 X81.773 Y136.425 E48.21203
G1 X80.941 Y136.479 E48.32296
G1 X65.271 Y136.479 E50.4077
G1 X64.551 Y136.439 E50.50364
G1 X63.84 Y136.32 E50.59955
G1 X63.147 Y136.122 E50.69543
G1 X62.48 Y135.849 E50.79132
G1 X61.847 Y135.504 E50.88723
G1 X61.256 Y135.091 E50.98315
G1 X60.715 Y134.615 E51.07902
G1 X60.23 Y134.082 E51.17489
G1 X59.806 Y133.499 E51.2708
G1 X59.45 Y132.872 E51.36672
G1 X59.166 Y132.21 E51.46256
G1 X58.956 Y131.52 E51.55851
G1 X58.825 Y130.811 E51.65443
G1 X58.771 Y129.979 E51.76536
G1 X58.771 Y129.056 E51.88815
G1 X58.101 Y128.438 E52.00942
G1 X57.599 Y127.921 E52.10529
G1 X57.158 Y127.351 E52.20117
G1 X56.782 Y126.736 E52.29707
G1 X56.476 Y126.083 E52.39301
G1 X56.245 Y125.401 E52.48881
G1 X56.09 Y124.697 E52.58471
G1 X56.015 Y123.98 E52.68062
G1 X56.019 Y123.259 E52.77655
G1 X56.104 Y122.543 E52.87247
G1 X56.266 Y121.841 E52.96832
G1 X56.506 Y121.161 E53.06426
G1 X56.82 Y120.512 E53.16018
G1 X57.203 Y119.902 E53.256
G1 X57.652 Y119.337 E53.35202
G1 X58.16 Y118.826 E53.44788
G1 X58.722 Y118.375 E53.54374
G1 X59.33 Y117.988 E53.63963
G1 X59.978 Y117.671 E53.7356
G0 F6000 X60.031 Y118.748
G1 F1200 X60.64 Y118.485 E53.82386
G1 X61.277 Y118.298 E53.91218
G1 X61.931 Y118.189 E54.00039
G1 X62.507 Y118.159 E54.07712
G1 X66.054 Y118.159 E54.54902
G1 X66.716 Y118.199 E54.63725
G1 X67.368 Y118.318 E54.72543
G1 X68.001 Y118.515 E54.81363
G1 X68.606 Y118.787 E54.90188
G1 X69.174 Y119.129 E54.99008
G1 X69.212 Y119.159 E54.99652
G1 X76.998 Y119.159 E56.03238
G1 X77.025 Y119.138 E56.03693
G1 X77.592 Y118.794 E56.12516
G1 X78.196 Y118.52 E56.2134
G1 X78.829 Y118.322 E56.30164
G1 X79.48 Y118.201 E56.38973
G1 X80.157 Y118.159 E56.47997
G1 X83.705 Y118.159 E56.952
G1 X83.746 Y118.161 E56.95746
G1 X83.958 Y117.9 E57.0022
G1 X84.435 Y117.439 E57.09045
G1 X84.963 Y117.039 E57.17858
G1 X85.536 Y116.706 E57.26675
G1 X86.145 Y116.443 E57.355
G1 X86.782 Y116.256 E57.44332
G1 X87.436 Y116.147 E57.53153
G1 X88.012 Y116.117 E57.60827
G1 X91.56 Y116.117 E58.0803
G1 X92.222 Y116.157 E58.16853
G1 X92.874 Y116.276 E58.2567
G1 X93.507 Y116.473 E58.3449
G1 X94.112 Y116.745 E58.43315
G1 X94.68 Y117.087 E58.52136
G1 X94.718 Y117.117 E58.5278
G1 X102.504 Y117.117 E59.56366
G1 X102.531 Y117.096 E59.56821
G1 X103.098 Y116.752 E59.65644
G1 X103.702 Y116.478 E59.74468
G1 X104.335 Y116.28 E59.83292
G1 X104.986 Y116.159 E59.92101
G1 X105.663 Y116.117 E60.01125
G1 X109.21 Y116.117 E60.48314
G1 X109.872 Y116.157 E60.57138
G1 X110.524 Y116.276 E60.65955
G1 X111.157 Y116.473 E60.74775
G1 X111.762 Y116.745 E60.836
G1 X112.33 Y117.087 E60.92421
G1 X112.852 Y117.496 E61.01244
G1 X113.322 Y117.964 E61.10068
G1 X113.731 Y118.485 E61.1888
G1 X114.075 Y119.052 E61.27703
G1 X114.349 Y119.656 E61.36527
G1 X114.462 Y120.017 E61.41559
G1 X116.207 Y120.017 E61.64775
G1 X116.869 Y120.057 E61.73598
G1 X117.521 Y120.176 E61.82416
G1 X118.154 Y120.373 E61.91236
G1 X118.759 Y120.645 E62.00061
G1 X119.327 Y120.987 E62.08881
G1 X119.365 Y121.017 E62.09526
G1 X127.151 Y121.017 E63.13111
G1 X127.178 Y120.996 E63.13566
G1 X127.745 Y120.652 E63.22389
G1 X128.349 Y120.378 E63.31213
G1 X128.982 Y120.18 E63.40037
G1 X129.633 Y120.059 E63.48846
G1 X130.31 Y120.017 E63.5787
G1 X133.857 Y120.017 E64.0506
G1 X134.519 Y120.057 E64.13883
G1 X135.171 Y120.176 E64.22701
G1 X135.804 Y120.373 E64.3152
G1 X136.409 Y120.645 E64.40345
G1 X136.977 Y120.987 E64.49166
G1 X137.499 Y121.396 E64.57989
G1 X137.969 Y121.864 E64.66813
G1 X138.378 Y122.385 E64.75625
G1 X138.722 Y122.952 E64.84448
G1 X138.996 Y123.556 E64.93272
G1 X139.194 Y124.189 E65.02096
G1 X139.315 Y124.84 E65.10905
G1 X139.357 Y125.502 E65.1973
G1 X139.319 Y126.164 E65.28552
G1 X139.201 Y126.817 E65.3738
G1 X139.006 Y127.45 E65.46192
G1 X138.736 Y128.056 E65.55018
G1 X138.395 Y128.624 E65.63832
G1 X137.988 Y129.148 E65.72659
G1 X137.585 Y129.561 E65.80336
G1 X136.593 Y130.475 E65.98282
G1 X136.593 Y131.837 E66.16402
G1 X136.553 Y132.499 E66.25225
G1 X136.434 Y133.151 E66.34043
G1 X136.237 Y133.784 E66.42863
G1 X135.965 Y134.389 E66.51688
G1 X135.623 Y134.957 E66.60509
G1 X135.214 Y135.479 E66.69331
G1 X134.746 Y135.949 E66.78155
G1 X134.225 Y136.358 E66.86967
G1 X133.658 Y136.702 E66.95791
G1 X133.054 Y136.976 E67.04614
G1 X132.421 Y137.174 E67.13438
G1 X131.77 Y137.295 E67.22248
G1 X131.093 Y137.337 E67.31272
G1 X115.423 Y137.337 E69.39746
G1 X114.761 Y137.297 E69.4857
G1 X114.109 Y137.178 E69.57387
G1 X113.476 Y136.981 E69.66207
G1 X112.871 Y136.709 E69.75032
G1 X112.303 Y136.367 E69.83853
G1 X111.781 Y135.958 E69.92675
G1 X111.311 Y135.49 E70.01499
G1 X110.902 Y134.969 E70.10312
G1 X110.558 Y134.402 E70.19135
G1 X110.284 Y133.798 E70.27959
G1 X110.086 Y133.165 E70.36782
G1 X109.965 Y132.514 E70.45592
G1 X109.944 Y132.171 E70.50163
G1 X109.578 Y132.458 E70.56351
G1 X109.011 Y132.802 E70.65174
G1 X108.407 Y133.076 E70.73998
G1 X107.774 Y133.274 E70.82822
G1 X107.123 Y133.395 E70.91631
G1 X106.446 Y133.437 E71.00656
G1 X90.776 Y133.437 E73.0913
G1 X90.114 Y133.397 E73.17953
G1 X89.462 Y133.278 E73.26771
G1 X88.829 Y133.081 E73.35591
G1 X88.224 Y132.809 E73.44416
G1 X87.656 Y132.467 E73.53237
G1 X87.134 Y132.058 E73.62059
G1 X86.664 Y131.59 E73.70883
G1 X86.31 Y131.139 E73.78511
G1 X86.282 Y131.293 E73.80593
G1 X86.085 Y131.926 E73.89413
G1 X85.813 Y132.531 E73.98238
G1 X85.471 Y133.099 E74.07059
G1 X85.062 Y133.621 E74.15882
G1 X84.594 Y134.091 E74.24706
G1 X84.073 Y134.5 E74.33518
G1 X83.506 Y134.844 E74.42341
G1 X82.902 Y135.118 E74.51165
G1 X82.269 Y135.316 E74.59989
G1 X81.618 Y135.437 E74.68798
G1 X80.941 Y135.479 E74.77822
G1 X65.271 Y135.479 E76.86297
G1 X64.609 Y135.439 E76.9512
G1 X63.957 Y135.32 E77.03938
G1 X63.324 Y135.123 E77.12757
G1 X62.719 Y134.851 E77.21582
G1 X62.151 Y134.509 E77.30403
G1 X61.629 Y134.1 E77.39226
G1 X61.159 Y133.632 E77.4805
